X:1
T:Laputa Fallingstar
T:Fallingstar
T:Revison of Laputa the Castle in the Sky Theme Song
T:Joe Hisaishi
C:Joe Hisaishi
%%score { 1 | 2 }
L:1/8
Q:1/4=60
M:1/8
K:C
V:1 treble nm="Piano" snm="Pno."
V:2 bass 
V:1
 a/b/ |[M:4/4] c'-c'/b/ c'<e' b3 e/g/ | a-a/g/ a/c'/-c' g3 d/e/ | f-f/e/ f/c'/-c' e3 c'/d'/ | %4
 b-b/a/ a/b/-b/c'/ b-b z a/b/ | c'-c'/b/ c'/e'/-e' b3 e/g/ | a-a/g/ a/c'/-c' g3 d/e/ | %7
 f-f/e/ f/c'/-c' c'3 c'/d'/ | b-b/a/ a^g a-a z c'/d'/ | e'-e'/d'/ e'/g'/-g' d'3 g | %10
 f'-f'/e'/ e'd'/e'/- e'- e'2 a/b/ | c'-c'/b/ c'e' g'-g'<d'c'/d'/ | f'-f'/g'/ e'/d'/-d' e'3 c'/d'/ | %13
 e'-e'/d'/ e'/g'/-g' d'3 g | a'-a'/g'/ g'/f'/-f'/g'/ e'3 a/b/ | c'-c'/b/ c'e' g'-g'<d'e'/d'/ | %16
 c'd'/c'/ b/a/-a/^g/ a4 |] %17
V:2
 z |[M:4/4] A,,E,A,E G,,D,A,D | F,,C,F,C E,,B,,E,B, | D,,A,,D,A, C,,G,,C,G, | %4
 B,,^F,B,^F E,,B,,E,B, | A,,E,A,E G,,D,G,D | F,,C,F,C E,,B,,E,B, | D,,A,,D,C E,,B,,E,A, | %8
 B,,^F,B,^F A,,E,A,C | C,/G,/C/D/ E/c/B/A/ G,,/D,/G,/A,/ B,/C/D/E/ | %10
 F,,/C,/F,/G,/ A,/C/D/F/ E,,/B,,/E,/^G,/ B,/E/A/B/ | %11
 A,,/E,/A,/B,/ C/D/E/A/ G,,/D,/G,/A,/ B,/C/D/E/ | %12
 F,,/C,/F,/G,/ A,/C/D/F/ E,,/B,,/E,/^G,/ B,/E/A/B/ | C,/G,/C/D/ E/G/A/c/ G,,/D,/G,/A,/ B,/C/D/E/ | %14
 F,,/C,/F,/G,/ A,/C/D/F/ E,,/B,,/E,/^G,/ B,/E/c/B/ | %15
 A,,/E,/A,/B,/ C/D/E/A/ G,,/D,/G,/A,/ B,/C/D/E/ | F,,/C,/F,/G,/ E,,/B,,/E,/^G,/ A,,/E,/A,/E/ A2 |] %17

